X:1
T:Sussex Toast
M:4/4
L:1/4
K:F
 C/2C/2| F F F G/2A/2| G C C2| G G G/2A/2 B/2G/2| A F F| C| F F F C/2C/2|\
 F A c2| B B/2B/2 A F| G2 F||

